frameNet/artwork/ic_search_fnsentence.svg

<?xml version="1.0" encoding="UTF-8" standalone="no"?><!-- Generator: Adobe Illustrator 14.0.0, SVG Export Plug-In . SVG Version: 6.00 Build 43363)  -->

<svg xmlns:dc="http://purl.org/dc/elements/1.1/" xmlns:cc="http://creativecommons.org/ns#" xmlns:rdf="http://www.w3.org/1999/02/22-rdf-syntax-ns#" xmlns:svg="http://www.w3.org/2000/svg" xmlns="http://www.w3.org/2000/svg"
	xmlns:sodipodi="http://sodipodi.sourceforge.net/DTD/sodipodi-0.dtd" xmlns:inkscape="http://www.inkscape.org/namespaces/inkscape" version="1.1" x="0px" y="0px" width="128" height="64" viewBox="0 0 128 64" enable-background="new 0 0 780 650"
	xml:space="preserve" id="svg4433" inkscape:version="0.91 r13725" sodipodi:docname="ic_search_fnsentence.svg"><metadata
     id="metadata5887"><rdf:RDF><cc:Work
         rdf:about=""><dc:format>image/svg+xml</dc:format><dc:type rdf:resource="http://purl.org/dc/dcmitype/StillImage" /><dc:title /></cc:Work></rdf:RDF></metadata>
	<defs id="defs5885"><style
       id="style2988"
       type="text/css">
    .fil0 {fill:#006C3B}
    .fil1 {fill:#77C06C}
   </style></defs>
	<sodipodi:namedview pagecolor="#ffffff" bordercolor="#666666" borderopacity="1" objecttolerance="10" gridtolerance="10" guidetolerance="10" inkscape:pageopacity="0" inkscape:pageshadow="2" inkscape:window-width="1384" inkscape:window-height="885"
		id="namedview5883" showgrid="false" inkscape:zoom="3.2999268" inkscape:cx="70.439592" inkscape:cy="-35.959953" inkscape:window-x="209" inkscape:window-y="24" inkscape:window-maximized="0" inkscape:current-layer="svg4433" />
	<g transform="matrix(0.71481874,0,0,0.71481874,-2.7578029,-686.03201)" style="fill:#d3d3d3;fill-opacity:1;stroke:none" id="g8098"><path
       style="color:#000000;fill:#d3d3d3;fill-opacity:1;stroke:none;stroke-width:10;stroke-miterlimit:4;stroke-dasharray:none;stroke-opacity:1"
       d="m 92.447266,94.203125 a 27.200616,27.445315 0 0 0 -27.996094,27.433595 27.201174,27.445878 0 0 0 54.402348,0 27.200616,27.445315 0 0 0 -26.406254,-27.433595 z m -11.416016,12.863285 21.38281,0 0,5.98828 -13.458982,0 0,5.7207 12.656252,0 0,5.99023 -12.656252,0 0,13.02735 -7.923828,0 0,-30.72656 z"
       transform="matrix(1.5534199,0,0,1.5534199,-94.275913,815.45522)"
       id="path8100"
       inkscape:connector-curvature="0" /></g>
	<g transform="matrix(0.46014345,0,0,0.47008529,12.565709,-9.8550275)" id="g4746" />
	<g transform="matrix(1.5338115,0,0,1.566951,-39.27712,-111.07693)" id="g4767" />
	<g transform="matrix(1.5338115,0,0,1.566951,-2.4656437,-111.07693)" id="g4847" />
	<g transform="matrix(1.5338115,0,0,1.566951,-19.33757,-142.41595)" id="g4855" />
	<g id="g21649" transform="matrix(0.32716341,0,0,0.32716341,-102.86075,120.35671)"><path
       style="fill:#dcdcdc;fill-opacity:1;fill-rule:nonzero;stroke:none"
       d="M 74.632812 2.6484375 L 74.632812 59.695312 L 121.16211 59.695312 L 121.16211 2.6484375 L 109.94336 2.6484375 L 74.632812 2.6484375 z M 80.814453 13.208984 L 114.91602 13.208984 L 114.91602 20.695312 L 80.814453 20.695312 L 80.814453 13.208984 z M 80.814453 26.951172 L 114.91602 26.951172 L 114.91602 34.435547 L 80.814453 34.435547 L 80.814453 26.951172 z M 80.814453 42 L 114.91602 42 L 114.91602 49.486328 L 80.814453 49.486328 L 80.814453 42 z "
       transform="matrix(3.0565765,0,0,3.0565765,314.40175,-367.87949)"
       id="path820" /></g>
	<g transform="matrix(0.71799222,0,0,0.73350513,-244.19255,-54.66643)" id="g4746-3" />
	<g transform="matrix(2.3933074,0,0,2.4450171,-325.08634,-212.60965)" id="g4767-7" />
	<g transform="matrix(2.3933074,0,0,2.4450171,-267.64696,-212.60965)" id="g4847-9" />
	<g transform="matrix(2.3933074,0,0,2.4450171,-293.97334,-261.50999)" id="g4855-0" />
	<g style="font-style:normal;font-variant:normal;font-weight:bold;font-stretch:normal;font-size:65.47507477px;line-height:125%;font-family:Sans;-inkscape-font-specification:'Sans Bold';text-align:start;letter-spacing:0px;word-spacing:0px;writing-mode:lr-tb;text-anchor:start;fill:#ffe4e1;fill-opacity:1;stroke:none;stroke-opacity:1"
		id="g8102" transform="matrix(0.64374093,0,0,0.64374093,228.59688,114.77019)" />
	<text xml:space="preserve"
		style="font-style:normal;font-variant:normal;font-weight:normal;font-stretch:normal;font-size:15px;line-height:100%;font-family:'DejaVu Sans';-inkscape-font-specification:'DejaVu Sans, Normal';text-align:start;letter-spacing:0px;word-spacing:0px;writing-mode:lr-tb;text-anchor:start;fill:#000000;fill-opacity:1;stroke:none;stroke-width:1px;stroke-linecap:butt;stroke-linejoin:miter;stroke-opacity:1"
		x="9.0911112" y="172.79028" id="text8116" sodipodi:linespacing="100%"><tspan
       sodipodi:role="line"
       id="tspan8118"
       x="9.0911112"
       y="172.79028"></tspan></text>
</svg>

<svg xmlns="http://www.w3.org/2000/svg" xml:space="preserve" width="128" height="64"><g style="fill:#d3d3d3;fill-opacity:1;stroke:none"><path d="M92.447 94.203a27.2 27.445 0 0 0-27.996 27.434 27.201 27.446 0 0 0 54.403 0 27.2 27.445 0 0 0-26.407-27.434zm-11.416 12.863h21.383v5.989H88.955v5.72h12.656v5.99H88.955v13.028h-7.924v-30.727z" style="color:#000;fill:#d3d3d3;fill-opacity:1;stroke:none;stroke-width:10;stroke-miterlimit:4;stroke-dasharray:none;stroke-opacity:1" transform="matrix(1.11041 0 0 1.11041 -70.148 -103.13)"/></g><path d="M74.633 2.648v57.047h46.53V2.648h-46.53zm6.181 10.561h34.102v7.486H80.814V13.21zm0 13.742h34.102v7.485H80.814V26.95zm0 15.049h34.102v7.486H80.814V42z" style="fill:#dcdcdc;fill-opacity:1;fill-rule:nonzero;stroke:none"/><text xml:space="preserve" x="9.091" y="172.79" style="font-style:normal;font-variant:normal;font-weight:400;font-stretch:normal;font-size:15px;line-height:100%;font-family:&quot;DejaVu Sans&quot;;-inkscape-font-specification:&quot;DejaVu Sans, Normal&quot;;text-align:start;letter-spacing:0;word-spacing:0;writing-mode:lr-tb;text-anchor:start;fill:#000;fill-opacity:1;stroke:none;stroke-width:1px;stroke-linecap:butt;stroke-linejoin:miter;stroke-opacity:1"/></svg>
